X: 877
T: Ballyhooley
N:"Collected by F.O'Neill"
B:O'Neill's 877
Z:Transcribed by Dan G. Petersen, dangp@post6.tele.dk
M:6/8
L:1/8
K:G
GAG Bcd|ABA cde|GAG dBd|gfe dcB|
cec BdB|ABA cde|dBG cAF|G3 G2:|
gfe dBd|edB GBd|gfe dBd|ecA A2(e/f/)|
gbg afd|ege dBG|BdB cAF|G3 G2:|


